X:69
T:Butcher's March
R:jig
Z:id:hn-jig-69
M:6/8
K:G
~d3 BAB|dBA A2B|ded ~B3|dBA G2B|ded BAB|dBA A2g|faf gfe|1 dBG G2B:|2 dBG GBd||
|:eAA fed|eAA ABd|eAA gfe|dBG GBd|eAA fAA|eAA efg|faf gfe|1 dBG GBd:|2 dBG G2B||

